svg/up-shield.svg

<?xml version="1.0" encoding="UTF-8"?>
<svg xmlns="http://www.w3.org/2000/svg" xmlns:xlink="http://www.w3.org/1999/xlink" width="32" height="32" viewBox="0 0 32 32">
<path fill-rule="nonzero" fill="rgb(0%, 0%, 0%)" fill-opacity="1" d="M 16.011719 30.851562 L 15.746094 30.726562 C 15.613281 30.667969 2.667969 24.476562 2.667969 6.015625 L 2.667969 5.527344 L 3.144531 5.421875 C 7.628906 4.4375 10.277344 3.042969 12.210938 2.023438 C 13.714844 1.238281 14.800781 0.667969 16 0.667969 C 17.199219 0.667969 18.285156 1.238281 19.789062 2.023438 C 21.722656 3.042969 24.371094 4.4375 28.855469 5.421875 L 29.332031 5.527344 L 29.332031 6.015625 C 29.332031 23.863281 16.40625 30.648438 16.273438 30.71875 Z M 16.011719 30.851562 "/>
<path fill-rule="nonzero" fill="rgb(100%, 100%, 100%)" fill-opacity="1" d="M 16.421875 5.347656 C 11.898438 5.347656 8.234375 9.078125 8.234375 13.683594 C 8.234375 18.285156 11.898438 22.015625 16.421875 22.015625 C 20.945312 22.015625 24.613281 18.285156 24.613281 13.683594 C 24.613281 9.078125 20.945312 5.347656 16.421875 5.347656 "/>
<path fill-rule="nonzero" fill="rgb(0%, 0%, 0%)" fill-opacity="1" d="M 16.414062 5.984375 C 12.203125 5.984375 8.78125 9.410156 8.78125 13.621094 C 8.78125 17.832031 12.203125 21.257812 16.414062 21.257812 C 20.625 21.257812 24.050781 17.832031 24.050781 13.621094 C 24.050781 9.410156 20.625 5.984375 16.414062 5.984375 M 19.890625 12.152344 C 19.839844 12.269531 19.726562 12.347656 19.597656 12.347656 L 18.640625 12.347656 C 18.558594 12.347656 18.476562 12.316406 18.417969 12.253906 L 17.050781 10.890625 L 17.050781 18.394531 C 17.050781 18.480469 17.019531 18.558594 16.960938 18.621094 C 16.898438 18.679688 16.820312 18.710938 16.734375 18.710938 L 16.097656 18.710938 C 15.921875 18.710938 15.78125 18.570312 15.777344 18.394531 L 15.777344 10.890625 L 14.414062 12.253906 C 14.355469 12.3125 14.273438 12.347656 14.1875 12.347656 L 13.234375 12.347656 C 13.105469 12.34375 12.992188 12.269531 12.941406 12.148438 C 12.894531 12.03125 12.917969 11.894531 13.007812 11.804688 L 16.191406 8.625 C 16.246094 8.558594 16.328125 8.523438 16.414062 8.53125 C 16.5 8.53125 16.582031 8.5625 16.640625 8.625 L 19.820312 11.804688 C 19.914062 11.894531 19.941406 12.03125 19.890625 12.152344 "/>
</svg>

<svg role="img" viewBox="0 0 32 32" height="32" width="32" xmlns="http://www.w3.org/2000/svg"><path d="m16.012 30.852-.266-.125c-.133-.059-13.078-6.25-13.078-24.711v-.489l.477-.105c4.484-.984 7.132-2.379 9.066-3.399C13.715 1.238 14.8.668 16 .668c1.2 0 2.285.57 3.79 1.355 1.933 1.02 4.581 2.415 9.065 3.399l.477.105v.489c0 17.847-12.926 24.632-13.059 24.703Zm0 0"/><path d="M16.422 5.348c-4.524 0-8.188 3.73-8.188 8.336 0 4.601 3.664 8.332 8.188 8.332 4.523 0 8.191-3.73 8.191-8.332 0-4.606-3.668-8.336-8.191-8.336" fill="rgb(100%, 100%, 100%)"/><path d="M16.414 5.984c-4.21 0-7.633 3.426-7.633 7.637 0 4.211 3.422 7.637 7.633 7.637s7.637-3.426 7.637-7.637c0-4.21-3.426-7.637-7.637-7.637m3.477 6.168a.32.32 0 0 1-.293.196h-.957a.304.304 0 0 1-.223-.094l-1.367-1.363v7.504a.326.326 0 0 1-.09.226.326.326 0 0 1-.227.09h-.636a.32.32 0 0 1-.32-.316V10.89l-1.364 1.363a.322.322 0 0 1-.226.094h-.954a.32.32 0 0 1-.227-.543l3.184-3.18a.257.257 0 0 1 .223-.094c.086 0 .168.031.227.094l3.18 3.18c.093.09.12.226.07.347"/></svg>
